X: 39193
T: Swinging On The Gate
R: reel
M: 4/4
K: Gmajor
a^a|:bage d2 d^d|ecdB cBGA|GBdg b2 ag|ac'c'b afga|
bage d2 d^d|ecdB cBGA|ecdB cBGA|GBBA B4:|
|:B3 c dBcA|BdcB G2 cB|Accd edcB|ABcd FFGA|
B3 c dBcA|BdcB G2 cd|ecdB cBGA|GBBA B3 z:|

